; generated by PrusaSlicer 2.5.0+win64 on 2023-07-18 at 08:11:46 UTC

; 

; external perimeters extrusion width = 0.42mm
; perimeters extrusion width = 0.44mm
; infill extrusion width = 0.44mm
; solid infill extrusion width = 0.44mm
; top infill extrusion width = 0.40mm
; first layer extrusion width = 0.42mm

M201 X500 Y500 Z100 E1000 ; sets maximum accelerations, mm/sec^2
M203 X500 Y500 Z5 E60 ; sets maximum feedrates, mm / sec
M204 P500 R1000 T500 ; sets acceleration (P, T) and retract acceleration (R), mm/sec^2
M205 X8.00 Y8.00 Z0.40 E5.00 ; sets the jerk limits, mm/sec
M205 S0 T0 ; sets the minimum extruding and travel feed rate, mm/sec
M107
;TYPE:Custom
G90 ; use absolute coordinates
M83 ; extruder relative mode
M104 S150 ; set temporary nozzle temp to prevent oozing during homing
M140 S60 ; set final bed temp
G4 S30 ; allow partial nozzle warmup
G28 ; home all axis
G91
G1 Z50.0 F240
G90
M83
G1 X14.91771 Y10.0 Z65.732 A0 B26.63
M104 S215 ; set final nozzle temp
M190 S60 ; wait for bed temp to stabilize
M109 S215 ; wait for nozzle temp to stabilize
G91
G1 Z-49.72 F240
G90
M83
G92 E0
G1 X2.00008 Y140.0 Z0.301 A0 B0.031 E10.7367
G1 X2.30008 Y140.0 Z0.3 A0 B0.031
G92 E0
G1 X2.30008 Y10.0 Z0.3 A0 B0.031 E10.73088
G92 E0
G21 ; set units to millimeters
G90 ; use absolute coordinates
M83 ; use relative distances for extrusion
; Filament gcode
M107
;LAYER_CHANGE
;Z:0.2
;HEIGHT:0.2
;BEFORE_LAYER_CHANGE
G92 E0
;0.2


G1 E-6 F3600
G91
G1 Z-0.08000000000000002 F9000
G90
M83
;AFTER_LAYER_CHANGE
;0.2
G1 X19.19004 Y90.038 Z0.208 A0 B0.022
G1 E6 F2400
M204 S500
;TYPE:Skirt/Brim
;WIDTH:0.42
G1 F1200
G1 X21.50504 Y89.831 Z0.207 A0 B0.022 E0.07562
G1 X42.66404 Y89.794 Z0.199 A0 B0.022 E0.67345
G1 X44.59704 Y89.947 Z0.198 A0 B0.022 E0.06039
G1 X46.63904 Y90.422 Z0.197 A0 B0.022 E0.06501
G1 X48.44804 Y91.16 Z0.197 A0 B0.022 E0.0604
G1 X50.00004 Y92.102 Z0.196 A0 B0.022 E0.05592
G1 X51.39304 Y93.296 Z0.196 A0 B0.022 E0.05635
G1 X52.55304 Y94.698 Z0.195 A0 B0.022 E0.05575
G1 X53.18504 Y95.715 Z0.195 A0 B0.022 E0.03662
G1 X53.64804 Y96.647 Z0.195 A0 B0.022 E0.03178
G1 X54.29604 Y98.483 Z0.194 A0 B0.022 E0.05941
G1 X54.62504 Y100.092 Z0.194 A0 B0.022 E0.05009
G1 X54.75504 Y101.886 Z0.194 A0 B0.022 E0.05481
G1 X54.73804 Y123.715 Z0.194 A0 B0.022 E0.66513
G1 X54.55404 Y125.353 Z0.194 A0 B0.022 E0.05025
G1 X54.12804 Y127.089 Z0.195 A0 B0.022 E0.05451
G1 X53.46404 Y128.748 Z0.195 A0 B0.022 E0.05454
G1 X52.78904 Y129.95 Z0.195 A0 B0.022 E0.04214
G1 X52.07804 Y130.934 Z0.195 A0 B0.022 E0.03717
G1 X51.25304 Y131.843 Z0.196 A0 B0.022 E0.03763
G1 X50.33704 Y132.645 Z0.196 A0 B0.022 E0.03739
G1 X48.98304 Y133.553 Z0.197 A0 B0.022 E0.05017
G1 X47.90304 Y134.098 Z0.197 A0 B0.022 E0.03734
G1 X46.63904 Y134.578 Z0.197 A0 B0.022 E0.0418
G1 X45.05104 Y134.978 Z0.198 A0 B0.022 E0.05077
G1 X43.71504 Y135.159 Z0.199 A0 B0.022 E0.04192
G1 X20.82404 Y135.149 Z0.207 A0 B0.022 E0.72832
G1 X19.04204 Y134.935 Z0.208 A0 B0.022 E0.05843
G1 X17.45704 Y134.533 Z0.209 A0 B0.022 E0.05341
G1 X15.80104 Y133.87 Z0.209 A0 B0.022 E0.05843
G1 X14.60004 Y133.195 Z0.21 A0 B0.022 E0.04525
G1 X13.61604 Y132.484 Z0.21 A0 B0.022 E0.03995
G1 X12.70604 Y131.659 Z0.211 A0 B0.022 E0.04047
G1 X11.90404 Y130.743 Z0.211 A0 B0.022 E0.04021
G1 X10.99704 Y129.389 Z0.211 A0 B0.022 E0.05389
G1 X10.45204 Y128.31 Z0.211 A0 B0.022 E0.04003
G1 X9.97104 Y127.046 Z0.212 A0 B0.022 E0.04479
G1 X9.57204 Y125.46 Z0.212 A0 B0.022 E0.05424
G1 X9.39104 Y124.126 Z0.212 A0 B0.022 E0.04469
G1 X9.36004 Y101.324 Z0.212 A0 B0.022 E0.75678
G1 X9.54504 Y99.688 Z0.212 A0 B0.022 E0.05461
G1 X9.97104 Y97.954 Z0.212 A0 B0.022 E0.05923
G1 X10.63504 Y96.297 Z0.211 A0 B0.022 E0.05916
G1 X11.31004 Y95.095 Z0.211 A0 B0.022 E0.04561
G1 X12.02104 Y94.111 Z0.211 A0 B0.022 E0.04013
G1 X12.84604 Y93.202 Z0.21 A0 B0.022 E0.04053
G1 X13.61604 Y92.516 Z0.21 A0 B0.022 E0.03397
G1 X14.60004 Y91.805 Z0.21 A0 B0.022 E0.03995
G1 X15.64904 Y91.205 Z0.209 A0 B0.022 E0.03971
G1 X16.74704 Y90.718 Z0.209 A0 B0.022 E0.03936
G1 X17.88004 Y90.339 Z0.209 A0 B0.022 E0.03907
G1 X19.13204 Y90.052 Z0.208 A0 B0.022 E0.04193
; printing object Dinosaur.stl id:0 copy 0
G1 E-4.2 F3600
;WIPE_START
G1 F7200
G1 X21.50504 Y89.831 Z0.207 A0 B0.022 E-1.17489
G1 X22.72104 Y89.829 Z0.207 A0 B0.022 E-0.59745
;WIPE_END
G1 E-.09 F3600
G1 X39.37204 Y115.605 Z0.2 A0 B0.022
G1 E6 F2400
;TYPE:Perimeter
;WIDTH:0.419999
G1 F1200
G1 X40.14004 Y115.352 Z0.2 A0 B0.022 E0.02535
G1 X40.93904 Y115.169 Z0.2 A0 B0.022 E0.02567
G1 X41.75704 Y115.057 Z0.199 A0 B0.022 E0.02583
G1 X42.28604 Y115.034 Z0.199 A0 B0.022 E0.01654
G1 X43.06704 Y115.04 Z0.199 A0 B0.022 E0.02435
G1 X43.89104 Y115.121 Z0.199 A0 B0.022 E0.02581
G1 X44.69904 Y115.275 Z0.198 A0 B0.022 E0.02556
G1 X45.47404 Y115.497 Z0.198 A0 B0.022 E0.02503
G1 X46.20704 Y115.782 Z0.198 A0 B0.022 E0.02439
G1 X46.89304 Y116.128 Z0.197 A0 B0.022 E0.02377
G1 X47.52604 Y116.531 Z0.197 A0 B0.022 E0.02321
G1 X48.10004 Y116.988 Z0.197 A0 B0.022 E0.02268
G1 X48.64004 Y117.527 Z0.197 A0 B0.022 E0.02353
G1 X49.11704 Y118.129 Z0.196 A0 B0.022 E0.02367
G1 X49.53204 Y118.791 Z0.196 A0 B0.022 E0.02406
G1 X49.88304 Y119.506 Z0.196 A0 B0.022 E0.02449
G1 X50.16604 Y120.261 Z0.196 A0 B0.022 E0.02483
G1 X50.38004 Y121.049 Z0.196 A0 B0.022 E0.02507
G1 X50.52204 Y121.856 Z0.196 A0 B0.022 E0.02519
G1 X50.58704 Y122.565 Z0.196 A0 B0.022 E0.02188
G1 X50.60804 Y123.039 Z0.196 A0 B0.022 E0.01457
G1 X50.57104 Y123.869 Z0.196 A0 B0.022 E0.02552
G1 X50.45904 Y124.688 Z0.196 A0 B0.022 E0.02542
G1 X50.27504 Y125.487 Z0.196 A0 B0.022 E0.02519
G1 X50.02204 Y126.255 Z0.196 A0 B0.022 E0.02485
G1 X49.70404 Y126.98 Z0.196 A0 B0.022 E0.02435
G1 X49.32404 Y127.656 Z0.196 A0 B0.022 E0.02388
G1 X48.88404 Y128.276 Z0.197 A0 B0.022 E0.02343
G1 X48.38504 Y128.836 Z0.197 A0 B0.022 E0.02312
G1 X47.82604 Y129.335 Z0.197 A0 B0.022 E0.02315
G1 X47.20604 Y129.775 Z0.197 A0 B0.022 E0.0235
G1 X46.53004 Y130.155 Z0.197 A0 B0.022 E0.024
G1 X45.80504 Y130.472 Z0.198 A0 B0.022 E0.02453
G1 X45.03704 Y130.725 Z0.198 A0 B0.022 E0.02508
G1 X44.23804 Y130.909 Z0.198 A0 B0.022 E0.02547
G1 X43.41804 Y131.021 Z0.199 A0 B0.022 E0.02575
G1 X42.58804 Y131.059 Z0.199 A0 B0.022 E0.0259
G1 X41.75804 Y131.021 Z0.199 A0 B0.022 E0.02594
G1 X40.93904 Y130.909 Z0.2 A0 B0.022 E0.02587
G1 X40.14004 Y130.725 Z0.2 A0 B0.022 E0.02567
G1 X39.37204 Y130.472 Z0.2 A0 B0.022 E0.02535
G1 X38.64704 Y130.155 Z0.201 A0 B0.022 E0.02487
G1 X37.97104 Y129.775 Z0.201 A0 B0.022 E0.02439
G1 X37.35104 Y129.335 Z0.201 A0 B0.022 E0.02395
G1 X36.79204 Y128.836 Z0.201 A0 B0.022 E0.02364
G1 X36.29304 Y128.276 Z0.201 A0 B0.022 E0.02367
G1 X35.85304 Y127.656 Z0.202 A0 B0.022 E0.02402
G1 X35.47304 Y126.98 Z0.202 A0 B0.022 E0.02452
G1 X35.15504 Y126.254 Z0.202 A0 B0.022 E0.02506
G1 X34.90204 Y125.487 Z0.202 A0 B0.022 E0.02557
G1 X34.71804 Y124.688 Z0.202 A0 B0.022 E0.02595
G1 X34.60604 Y123.869 Z0.202 A0 B0.022 E0.0262
G1 X34.56804 Y123.039 Z0.202 A0 B0.022 E0.02632
G1 X34.60604 Y122.209 Z0.202 A0 B0.022 E0.02632
G1 X34.71804 Y121.389 Z0.202 A0 B0.022 E0.0262
G1 X34.90204 Y120.591 Z0.202 A0 B0.022 E0.02595
G1 X35.15504 Y119.823 Z0.202 A0 B0.022 E0.02558
G1 X35.47304 Y119.098 Z0.202 A0 B0.022 E0.02504
G1 X35.85304 Y118.422 Z0.202 A0 B0.022 E0.02452
G1 X36.29304 Y117.802 Z0.201 A0 B0.022 E0.02402
G1 X36.79204 Y117.242 Z0.201 A0 B0.022 E0.02367
G1 X37.35204 Y116.743 Z0.201 A0 B0.022 E0.02364
G1 X37.97204 Y116.303 Z0.201 A0 B0.022 E0.02395
G1 X38.64704 Y115.923 Z0.201 A0 B0.022 E0.0244
G1 X39.31704 Y115.629 Z0.2 A0 B0.022 E0.02298
G1 X39.23704 Y115.253 Z0.2 A0 B0.022
;TYPE:External perimeter
G1 F1200
G1 X40.03904 Y114.989 Z0.2 A0 B0.022 E0.02647
G1 X40.87104 Y114.797 Z0.2 A0 B0.022 E0.02675
G1 X41.72404 Y114.681 Z0.199 A0 B0.022 E0.02693
G1 X42.27104 Y114.658 Z0.199 A0 B0.022 E0.01709
G1 X43.08504 Y114.663 Z0.199 A0 B0.022 E0.0254
G1 X43.94304 Y114.748 Z0.198 A0 B0.022 E0.02685
G1 X44.78404 Y114.907 Z0.198 A0 B0.022 E0.02662
G1 X45.59204 Y115.138 Z0.198 A0 B0.022 E0.02611
G1 X46.35904 Y115.437 Z0.198 A0 B0.022 E0.0255
G1 X47.07804 Y115.799 Z0.197 A0 B0.022 E0.02493
G1 X47.74404 Y116.223 Z0.197 A0 B0.022 E0.02441
G1 X48.35104 Y116.707 Z0.197 A0 B0.022 E0.02396
G1 X48.92104 Y117.277 Z0.197 A0 B0.022 E0.02485
G1 X49.42404 Y117.911 Z0.196 A0 B0.022 E0.02494
G1 X49.86104 Y118.607 Z0.196 A0 B0.022 E0.02527
G1 X50.22804 Y119.354 Z0.196 A0 B0.022 E0.02563
G1 X50.52504 Y120.144 Z0.196 A0 B0.022 E0.02591
G1 X50.74804 Y120.964 Z0.196 A0 B0.022 E0.02612
G1 X50.89604 Y121.805 Z0.196 A0 B0.022 E0.02621
G1 X50.96304 Y122.548 Z0.196 A0 B0.022 E0.02291
G1 X50.98604 Y123.039 Z0.196 A0 B0.022 E0.01509
G1 X50.94604 Y123.903 Z0.196 A0 B0.022 E0.02655
G1 X50.83004 Y124.756 Z0.196 A0 B0.022 E0.02645
G1 X50.63804 Y125.589 Z0.196 A0 B0.022 E0.02623
G1 X50.37404 Y126.39 Z0.196 A0 B0.022 E0.02592
G1 X50.04204 Y127.149 Z0.196 A0 B0.022 E0.02546
G1 X49.64304 Y127.858 Z0.196 A0 B0.022 E0.02505
G1 X49.18004 Y128.511 Z0.196 A0 B0.022 E0.02466
G1 X48.65204 Y129.103 Z0.197 A0 B0.022 E0.02442
G1 X48.06104 Y129.63 Z0.197 A0 B0.022 E0.02444
G1 X47.40804 Y130.094 Z0.197 A0 B0.022 E0.02474
G1 X46.69804 Y130.493 Z0.197 A0 B0.022 E0.02519
G1 X45.93904 Y130.825 Z0.198 A0 B0.022 E0.02566
G1 X45.13804 Y131.089 Z0.198 A0 B0.022 E0.02617
G1 X44.30604 Y131.28 Z0.198 A0 B0.022 E0.02654
G1 X43.45204 Y131.397 Z0.199 A0 B0.022 E0.02681
G1 X42.58804 Y131.436 Z0.199 A0 B0.022 E0.02696
G1 X41.72404 Y131.397 Z0.199 A0 B0.022 E0.02701
G1 X40.87104 Y131.28 Z0.2 A0 B0.022 E0.02694
G1 X40.03804 Y131.089 Z0.2 A0 B0.022 E0.02676
G1 X39.23704 Y130.825 Z0.2 A0 B0.022 E0.02646
G1 X38.47904 Y130.493 Z0.201 A0 B0.022 E0.02603
G1 X37.76904 Y130.094 Z0.201 A0 B0.022 E0.02561
G1 X37.11604 Y129.63 Z0.201 A0 B0.022 E0.02523
G1 X36.52504 Y129.103 Z0.201 A0 B0.022 E0.02499
G1 X35.99804 Y128.511 Z0.202 A0 B0.022 E0.02502
G1 X35.53404 Y127.858 Z0.202 A0 B0.022 E0.02532
G1 X35.13504 Y127.149 Z0.202 A0 B0.022 E0.02576
G1 X34.80204 Y126.389 Z0.202 A0 B0.022 E0.02624
G1 X34.53804 Y125.589 Z0.202 A0 B0.022 E0.0267
G1 X34.34704 Y124.756 Z0.202 A0 B0.022 E0.02706
G1 X34.23004 Y123.903 Z0.202 A0 B0.022 E0.0273
G1 X34.19004 Y123.039 Z0.202 A0 B0.022 E0.02742
G1 X34.23004 Y122.175 Z0.202 A0 B0.022 E0.02742
G1 X34.34704 Y121.321 Z0.202 A0 B0.022 E0.0273
G1 X34.53804 Y120.489 Z0.202 A0 B0.022 E0.02705
G1 X34.80204 Y119.688 Z0.202 A0 B0.022 E0.02672
G1 X35.13504 Y118.929 Z0.202 A0 B0.022 E0.02622
G1 X35.53404 Y118.22 Z0.202 A0 B0.022 E0.02576
G1 X35.99804 Y117.567 Z0.202 A0 B0.022 E0.02531
G1 X36.52504 Y116.975 Z0.201 A0 B0.022 E0.02502
G1 X37.11604 Y116.448 Z0.201 A0 B0.022 E0.02499
G1 X37.76904 Y115.984 Z0.201 A0 B0.022 E0.02523
G1 X38.47904 Y115.585 Z0.201 A0 B0.022 E0.02561
G1 X39.18204 Y115.277 Z0.2 A0 B0.022 E0.02414
G1 X39.54804 Y115.505 Z0.2 A0 B0.022
G1 E-4.2 F3600
;WIPE_START
G1 F7200
G1 X40.03904 Y114.989 Z0.2 A0 B0.022 E-0.42922
G1 X40.87104 Y114.797 Z0.2 A0 B0.022 E-0.40526
G1 X41.72404 Y114.681 Z0.199 A0 B0.022 E-0.40798
G1 X42.27104 Y114.658 Z0.199 A0 B0.022 E-0.25899
G1 X42.70504 Y114.661 Z0.199 A0 B0.022 E-0.2054
;WIPE_END
G1 E-.09 F3600
G1 X49.23404 Y118.508 Z0.196 A0 B0.022
G1 E6 F2400
;TYPE:Solid infill
;WIDTH:0.428442
G1 F1200
G1 X48.12804 Y117.402 Z0.197 A0 B0.022 E0.04929
G1 X47.64404 Y116.971 Z0.197 A0 B0.022 E0.02046
G1 X47.05004 Y116.549 Z0.197 A0 B0.022 E0.02304
G1 X46.33704 Y116.156 Z0.198 A0 B0.022 E0.02579
G1 X49.47204 Y119.291 Z0.196 A0 B0.022 E0.13999
G1 X49.75104 Y119.927 Z0.196 A0 B0.022 E0.02186
G1 X49.84304 Y120.207 Z0.196 A0 B0.022 E0.00926
G1 X45.42004 Y115.784 Z0.198 A0 B0.022 E0.19758
G1 X44.95804 Y115.632 Z0.198 A0 B0.022 E0.01543
G1 X44.65204 Y115.562 Z0.198 A0 B0.022 E0.00998
G1 X50.06504 Y120.975 Z0.196 A0 B0.022 E0.24193
G1 X50.17304 Y121.441 Z0.196 A0 B0.022 E0.01506
G1 X50.20204 Y121.657 Z0.196 A0 B0.022 E0.00682
G1 X43.97004 Y115.425 Z0.198 A0 B0.022 E0.27868
G1 X43.34404 Y115.344 Z0.199 A0 B0.022 E0.02012
G1 X50.28304 Y122.283 Z0.196 A0 B0.022 E0.31051
G1 X50.30904 Y122.854 Z0.196 A0 B0.022 E0.01797
G1 X42.77104 Y115.317 Z0.199 A0 B0.022 E0.33746
G1 X42.23704 Y115.327 Z0.199 A0 B0.022 E0.01706
G1 X50.30204 Y123.392 Z0.196 A0 B0.022 E0.36123
G1 X50.27204 Y123.908 Z0.196 A0 B0.022 E0.01623
G1 X41.71904 Y115.355 Z0.199 A0 B0.022 E0.3833
G1 X41.24004 Y115.42 Z0.2 A0 B0.022 E0.01548
G1 X50.20704 Y124.387 Z0.196 A0 B0.022 E0.40206
G1 X50.12404 Y124.849 Z0.196 A0 B0.022 E0.01476
G1 X40.77804 Y115.504 Z0.2 A0 B0.022 E0.41928
G1 X40.33404 Y115.606 Z0.2 A0 B0.022 E0.01456
G1 X50.02204 Y125.293 Z0.196 A0 B0.022 E0.43481
G1 X49.89504 Y125.712 Z0.196 A0 B0.022 E0.01375
G1 X39.91604 Y115.732 Z0.2 A0 B0.022 E0.44818
G1 X39.50604 Y115.867 Z0.2 A0 B0.022 E0.01385
G1 X49.76004 Y126.122 Z0.196 A0 B0.022 E0.46077
G1 X49.59604 Y126.503 Z0.196 A0 B0.022 E0.01306
G1 X39.12404 Y116.031 Z0.2 A0 B0.022 E0.47078
G1 X38.74804 Y116.2 Z0.2 A0 B0.022 E0.01326
G1 X49.42804 Y126.88 Z0.196 A0 B0.022 E0.48039
G1 X49.23104 Y127.229 Z0.196 A0 B0.022 E0.0126
G1 X38.39904 Y116.396 Z0.201 A0 B0.022 E0.48751
G1 X38.05704 Y116.599 Z0.201 A0 B0.022 E0.0128
G1 X49.02904 Y127.571 Z0.197 A0 B0.022 E0.49404
G1 X48.80204 Y127.89 Z0.197 A0 B0.022 E0.01233
G1 X37.73804 Y116.825 Z0.201 A0 B0.022 E0.49847
G1 X37.43004 Y117.063 Z0.201 A0 B0.022 E0.01252
G1 X48.56504 Y128.198 Z0.197 A0 B0.022 E0.50192
G1 X48.30804 Y128.486 Z0.197 A0 B0.022 E0.01218
G1 X37.14204 Y117.32 Z0.201 A0 B0.022 E0.50359
G1 X36.99704 Y117.448 Z0.201 A0 B0.022 E0.00622
G1 X36.86904 Y117.592 Z0.201 A0 B0.022 E0.00623
G1 X48.03604 Y128.759 Z0.197 A0 B0.022 E0.50386
G1 X47.74704 Y129.016 Z0.197 A0 B0.022 E0.01219
G1 X36.61204 Y117.88 Z0.201 A0 B0.022 E0.50271
G1 X36.37504 Y118.188 Z0.201 A0 B0.022 E0.01254
G1 X47.43904 Y129.253 Z0.197 A0 B0.022 E0.49977
G1 X47.12004 Y129.479 Z0.197 A0 B0.022 E0.01237
G1 X36.14804 Y118.507 Z0.201 A0 B0.022 E0.49586
G1 X35.94504 Y118.85 Z0.202 A0 B0.022 E0.01286
G1 X46.77804 Y129.682 Z0.197 A0 B0.022 E0.48981
G1 X46.42904 Y129.878 Z0.198 A0 B0.022 E0.01267
G1 X35.74904 Y119.198 Z0.202 A0 B0.022 E0.48316
G1 X35.58004 Y119.575 Z0.202 A0 B0.022 E0.01334
G1 X46.05204 Y130.047 Z0.198 A0 B0.022 E0.474
G1 X45.67104 Y130.211 Z0.198 A0 B0.022 E0.01316
G1 X35.41704 Y119.956 Z0.202 A0 B0.022 E0.4644
G1 X35.28104 Y120.366 Z0.202 A0 B0.022 E0.01396
G1 X45.26104 Y130.346 Z0.198 A0 B0.022 E0.45218
G1 X44.84204 Y130.472 Z0.198 A0 B0.022 E0.01388
G1 X35.15504 Y120.785 Z0.202 A0 B0.022 E0.43916
G1 X35.05304 Y121.228 Z0.202 A0 B0.022 E0.01472
G1 X44.39904 Y130.574 Z0.198 A0 B0.022 E0.42391
G1 X43.93704 Y130.657 Z0.198 A0 B0.022 E0.01493
G1 X34.97004 Y121.69 Z0.202 A0 B0.022 E0.40693
G1 X34.90404 Y122.17 Z0.202 A0 B0.022 E0.01567
G1 X43.45704 Y130.723 Z0.199 A0 B0.022 E0.38835
G1 X42.94104 Y130.752 Z0.199 A0 B0.022 E0.01646
G1 X34.87504 Y122.686 Z0.202 A0 B0.022 E0.36645
G1 X34.86704 Y123.223 Z0.202 A0 B0.022 E0.0174
G1 X42.40404 Y130.76 Z0.199 A0 B0.022 E0.34256
G1 X41.83204 Y130.734 Z0.199 A0 B0.022 E0.01826
G1 X34.89304 Y123.794 Z0.202 A0 B0.022 E0.31557
G1 X34.97404 Y124.421 Z0.202 A0 B0.022 E0.02045
G1 X41.20604 Y130.653 Z0.2 A0 B0.022 E0.28353
G1 X40.99104 Y130.623 Z0.2 A0 B0.022 E0.00695
G1 X40.52404 Y130.516 Z0.2 A0 B0.022 E0.01534
G1 X35.11104 Y125.103 Z0.202 A0 B0.022 E0.24639
G1 X35.18204 Y125.409 Z0.202 A0 B0.022 E0.01015
G1 X35.33404 Y125.871 Z0.202 A0 B0.022 E0.01573
G1 X39.75604 Y130.293 Z0.2 A0 B0.022 E0.20142
G1 X39.47604 Y130.201 Z0.2 A0 B0.022 E0.00946
G1 X38.84004 Y129.922 Z0.2 A0 B0.022 E0.0223
G1 X35.70504 Y126.787 Z0.202 A0 B0.022 E0.14287
G1 X36.09804 Y127.5 Z0.202 A0 B0.022 E0.02631
G1 X36.52004 Y128.095 Z0.201 A0 B0.022 E0.02353
G1 X36.95304 Y128.58 Z0.201 A0 B0.022 E0.02095
G1 X38.05704 Y129.684 Z0.201 A0 B0.022 E0.05031
G1 E-4.2 F3600
;WIPE_START
G1 F7200
G1 X36.95304 Y128.58 Z0.201 A0 B0.022 E-0.74541
